!!!SOCIAL_FUNCTION:	songs concerning the sacred stones
!!!PDT:	1918

Specific Region: Dakotas, Minnesota, Montana, Nebraska
!!!REG: Dakotas and Montana
!!!LING_GROUP: Siouan
!!!LANG: Tone
!!!OTL@ENG: They Move With a Purpose
!!!ONM: No. 65
**kern
*Imale
*clefF4
*k[f#c#g#]
*M3/4
*>[A,A]
*>norep[A]
*>A
=!|:
*MM84
8c#
8c#
=1
2.c#
=2||
*M2/4
4B
8.B
16A
=3
16A
8.A
[4A
=4
2A_
=5
4A]
8.F#
16A
=6||
*M3/4
2.A
=7||
*M2/4
4A
(8.A
16F#)
=8
8E
8D#
8.E
16D#
=9
2E
=10
4..E
16e
=11
(12e
12B)
12B
4B
=12
4B
(8.B
16A)
=13||
8A
8A
(8.A
16F#)
=14
8E
8D#
[4E
=15||
*M3/4
2E]
8C#
8C#
=16
2.C#
=17||
*M2/4
4BB
4BB
=18
16AA
8.GG#
8.AA
16GG#
=19
2AA
=20||
*M3/4
2AA
==:|!
*-
!!!CNT: Native American -- Sioux
!!!MRD: 1911/07//-1914///
!!!OCL: Frances Densmore
!!!YOR1: Teton Sioux Music, Bulletin 61,
!!!YOR2: Bureau of American Ethnology, Smithsonian Institution
!!!PPR: Government Printing Office
!!!PPP: Washington, D.C.
!!!PDT: 1918///
!!!ENC: Craig Stuart Sapp
!!!END: 2002/03/25/
!!!EEV: 2002/03/31/
!!!AGN: Song of Personal Dreams/Song Concerning the Sacred Stones
!!!MPN@@SIO: Waking'yan-wata'kpe
!!!MPN@ENG: Charging Thunder
!!!TXO: Teton Sioux
!!!MLC: Standing Rock Reservation, South Dakota, United States of America
!!!ARL: 45.9/-100.7#
!!!catalog: Catalogue No. 567
!!!PPG: 221
!!!EFL: 65/245
!!!VTS: 3221216042
